X:222 
T:Wellington's Reel 
B:CRE 3.110 (RÃÂÃÂÃÂÃÂ­l Wellington)
F:file ID: cre.3/222well
L:1/8
Q:180
M:4/4
R:reel
K:A
A2cA EAcA|B3c defd|B3c dBBA|GEE2 GABG|
A2cA EAcA|B3c defg|(3agf ec d2 cd|ecdB cAAA:|
(3aaa ca eaca|a[ac']ba gee2|g2bg egbg|a[ac']ba gee2|
a2ca eaca|a[ac']ba gefg|(3agf ec d2cd|(3edc dB cAA2:|

%%%

